packages/dnb-eufemia/assets/icons/upload.svg

<svg width="16" height="16" viewBox="0 0 16 16" fill="none" xmlns="http://www.w3.org/2000/svg">
<path d="M4.81125 7.14308C4.51956 7.43717 4.52151 7.91204 4.81559 8.20373C5.10968 8.49542 5.58455 8.49348 5.87625 8.19939L4.81125 7.14308ZM8 4.99315L8.5325 4.465C8.39167 4.32301 8.19998 4.24315 8 4.24315C7.80002 4.24315 7.60833 4.32301 7.4675 4.465L8 4.99315ZM10.1238 8.19939C10.4154 8.49348 10.8903 8.49542 11.1844 8.20373C11.4785 7.91204 11.4804 7.43717 11.1887 7.14308L10.1238 8.19939ZM7.25 13.5C7.25 13.9142 7.58579 14.25 8 14.25C8.41421 14.25 8.75 13.9142 8.75 13.5H7.25ZM3 1.25C2.58579 1.25 2.25 1.58579 2.25 2C2.25 2.41421 2.58579 2.75 3 2.75V1.25ZM13 2.75C13.4142 2.75 13.75 2.41421 13.75 2C13.75 1.58579 13.4142 1.25 13 1.25V2.75ZM5.87625 8.19939L8.5325 5.52131L7.4675 4.465L4.81125 7.14308L5.87625 8.19939ZM7.4675 5.52131L10.1238 8.19939L11.1887 7.14308L8.5325 4.465L7.4675 5.52131ZM8.75 13.5V4.99315H7.25V13.5H8.75ZM3 2.75H13V1.25H3V2.75Z" fill="black"/>
</svg>

<svg width="16" height="16" viewBox="0 0 16 16" fill="none" xmlns="http://www.w3.org/2000/svg"><path d="M4.811 7.143A.75.75 0 0 0 5.876 8.2L4.811 7.143ZM8 4.993l.533-.528a.75.75 0 0 0-1.065 0L8 4.993ZM10.124 8.2a.75.75 0 1 0 1.065-1.056L10.124 8.2ZM7.25 13.5a.75.75 0 0 0 1.5 0h-1.5ZM3 1.25a.75.75 0 0 0 0 1.5v-1.5Zm10 1.5a.75.75 0 0 0 0-1.5v1.5ZM5.876 8.2l2.657-2.68-1.065-1.055L4.81 7.143 5.876 8.2Zm1.591-2.68 2.658 2.68 1.065-1.056-2.656-2.678-1.065 1.056ZM8.75 13.5V4.993h-1.5V13.5h1.5ZM3 2.75h10v-1.5H3v1.5Z" fill="#000"/></svg>
